world_stage/static/flags/FIN/square.svg

<svg height="2200" viewBox="0 0 2200 2199.9999" width="2200" xmlns="http://www.w3.org/2000/svg"><path d="m0 2200.0001h2199.9999v-2200.00003h-2199.9999z" fill="#fff" stroke-width="1.63299"/><g fill="#003580"><path d="m0 1300.0007h2199.9999v-400.00136h-2199.9999z" stroke-width="1.33333"/><path d="m577.33332 2200.0001h399.99999v-2200.00003h-399.99999z" stroke-width="1.63299"/></g></svg>

<?xml version="1.0" encoding="UTF-8" standalone="no"?>
<svg
   height="2200"
   viewBox="0 0 2200 2199.9999"
   width="2200"
   version="1.1"
   id="svg4"
   sodipodi:docname="rect copy.svg"
   inkscape:version="1.4 (e7c3feb1, 2024-10-09)"
   xmlns:inkscape="http://www.inkscape.org/namespaces/inkscape"
   xmlns:sodipodi="http://sodipodi.sourceforge.net/DTD/sodipodi-0.dtd"
   xmlns="http://www.w3.org/2000/svg"
   xmlns:svg="http://www.w3.org/2000/svg">
  <defs
     id="defs4" />
  <sodipodi:namedview
     id="namedview4"
     pagecolor="#ffffff"
     bordercolor="#000000"
     borderopacity="0.25"
     inkscape:showpageshadow="2"
     inkscape:pageopacity="0.0"
     inkscape:pagecheckerboard="0"
     inkscape:deskcolor="#d1d1d1"
     inkscape:current-layer="svg4" />
  <path
     d="M 0,2200.0001 H 2199.9999 V 7e-5 H 0 Z"
     fill="#ffffff"
     id="path1"
     style="stroke-width:1.63299" />
  <path
     d="M 0,1300.0007 H 2199.9999 V 899.99934 H 0 Z"
     id="path2"
     style="fill:#003580;stroke-width:1.33333" />
  <path
     d="M 577.33332,2200.0001 H 977.33331 V 7e-5 H 577.33332 Z"
     id="path3"
     style="fill:#003580;stroke-width:1.63299" />
</svg>
